static/logos/mercury-glyph-color.svg

<svg width="50" height="51" viewBox="0 0 50 51" fill="none" xmlns="http://www.w3.org/2000/svg">
<g clip-path="url(#clip0_1_2037)">
<path d="M32.8182 42C33.2727 39.3182 32.3182 36.5455 30.2727 34.7273C28.8182 33.3636 26.8636 32.5909 24.8636 32.5909C23.6818 32.5909 22.5455 32.3182 21.5 31.7727C20.1364 31.0455 19.0455 29.9091 18.3182 28.5455C18.7273 27.5 18.9091 26.3636 18.9091 25.1364C18.9091 28.4545 21.5455 31.1364 24.8182 31.1364H24.9545C28.1818 31.0909 30.7727 28.4091 30.7727 25.1364C30.7727 23.9545 31 22.8182 31.3636 21.7273C32 20.0455 33.0909 18.5455 34.5455 17.4545C36.3182 16.0909 38.5 15.4545 40.6818 15.5455C39.1364 12.9091 36.9545 10.6818 34.3182 9.09091C34.3182 9.22727 34.3182 9.40909 34.3182 9.54545C34.3182 11.6364 33.6364 13.6364 32.4091 15.3182C32.0455 15 31.6364 14.7273 31.2273 14.5C32.3182 13.0909 32.8636 11.3636 32.8636 9.59091C32.8636 8.54545 32.6818 7.5 32.2727 6.5C31.0909 3.5909 28.3182 1.54545 25.0455 1.45454H24.8182H24.5909C22.5909 1.45454 20.6364 1.72727 18.7273 2.27273C10.6818 4.45455 4.36364 10.8636 2.22727 19C0.863636 20.6818 0.0454545 22.7273 0 24.9091C0.136364 11.2273 11.0455 0.136364 24.5909 0H24.8636C25 0 25.0909 0 25.2273 0C38.6818 0.227273 49.5455 11.2273 49.6818 24.9091C49.6818 25 49.6818 25.0909 49.6818 25.1818C49.6818 25.2727 49.6818 25.3636 49.6818 25.4545C49.6364 27.6364 48.8636 29.6818 47.4545 31.3636C46.1818 32.9091 44.4091 34.0455 42.4545 34.5C41.7273 34.6818 40.9545 34.7727 40.2273 34.7727C38.1818 34.7727 36.1818 34.0909 34.5455 32.8636C33.9545 33.6818 33.2273 34.3636 32.4545 35C33.7727 36.7727 34.4545 39 34.3182 41.2273C36.9545 39.6364 39.1364 37.4091 40.6818 34.7727C41.2727 34.7273 41.8636 34.6364 42.4545 34.5C40.5909 38.1364 37.6364 41.0909 34.0455 43C31.2273 44.5 28.0455 45.2727 24.8636 45.2727C23.4545 45.2727 22.1364 44.5909 21.3182 43.5C20.7273 42.6818 20.4091 41.7273 20.4091 40.7273C20.4091 39.3636 21.0455 38.0909 22 37.2727C22.9091 37.5 23.9091 37.6364 24.9091 37.6364C23.2273 37.6364 21.8182 39.0455 21.8182 40.7727C21.8182 42.5 23.1818 43.9091 24.9091 43.9091H24.9545C26.6364 43.9091 28.0455 42.5 28.0455 40.7727C28.0455 39.0455 26.6818 37.6364 24.9545 37.6364C22.6818 37.6364 20.5 37 18.5455 35.8182C18.1364 35.5455 17.7273 35.2727 17.3636 35C16.5455 34.3636 15.8636 33.6364 15.2273 32.8636C15.5909 32.5909 15.9545 32.2727 16.3182 31.9091C17.1818 33.0455 18.2727 34.0455 19.5455 34.7727C21.1818 35.7273 23.0455 36.2273 24.9545 36.2273C26.0455 36.2273 27.0909 36.6364 27.8636 37.3182C28.8182 38.1364 29.4545 39.4091 29.4545 40.7727C29.4545 41.7727 29.1364 42.7273 28.5455 43.5455C30.0455 43.2273 31.5 42.7727 32.8636 42.0909L32.8182 42ZM42.9545 21.5455C42.6818 20 42.1818 18.5455 41.5 17.1364C39.3182 16.7727 37.0909 17.3636 35.3636 18.6818C33.3636 20.2273 32.1818 22.6364 32.1818 25.1818C32.1818 26.4091 31.9091 27.5455 31.3636 28.5909C30.6818 29.9545 29.5455 31.0909 28.2273 31.8182C29.4545 32.2727 30.5455 33 31.5 33.9091C32.6364 33.0455 33.5909 31.9091 34.2727 30.6818C35.2273 29 35.7273 27.1364 35.7273 25.1818C35.7273 24.0455 36.1364 23.0455 36.8182 22.2273C37.6818 21.2273 38.9091 20.6364 40.2273 20.6364C41.2273 20.6364 42.1818 20.9545 42.9545 21.5455ZM43.2727 25.0455C43.2273 23.4091 41.8636 22.0909 40.1818 22.0455C38.4545 22.0455 37.0909 23.4545 37.0909 25.1364C37.0909 25.1818 37.0909 25.2273 37.0909 25.2273C37.1364 26.9091 38.5 28.2273 40.1818 28.2273C41.9091 28.2273 43.2727 26.8182 43.2727 25.1364C43.2727 25.1364 43.2727 25.0909 43.2727 25.0455ZM36.8182 28.1364C36.5 29.3636 36.0455 30.5909 35.3636 31.6818C37.0909 33.0455 39.3182 33.5909 41.5 33.2273C42.0909 33.1364 42.6818 32.9545 43.2727 32.7273C46.2273 31.5 48.1818 28.6364 48.2727 25.4091V25C48.2727 23 48 21 47.4545 19.0455C45.3182 10.9545 39 4.54545 31 2.31817C32.5455 3.63635 33.5909 5.40909 34.0909 7.36364V7.40909C38.2727 9.63636 41.5 13.2727 43.2727 17.6818C44.2273 20 44.7273 22.5455 44.7273 25.2273C44.7273 26.6818 44.0455 28 42.9545 28.8182C42.1818 29.4091 41.2273 29.7727 40.2273 29.7727C38.8636 29.7273 37.6364 29.0909 36.8182 28.1364ZM24.5 50.3182C11.0455 50.0909 0.181818 39.0455 0.0454545 25.4091V25.1364V24.8636C0.0909091 22.6818 0.863636 20.6364 2.27273 18.9545C3.54545 17.4091 5.31818 16.3182 7.27273 15.8182C8 15.6364 8.77273 15.5455 9.5 15.5455C11.5455 15.5455 13.5455 16.2273 15.1818 17.4545C15.7727 16.6364 16.5 15.9545 17.2727 15.3182C15.9545 13.5455 15.2727 11.3182 15.3636 9.09091C12.7273 10.6818 10.5455 12.9091 9 15.5455C8.40909 15.5909 7.81818 15.6818 7.22727 15.8182C9.09091 12.1818 12.0455 9.22727 15.6364 7.31818C18.4545 5.81818 21.6364 5.04545 24.8182 5.04545C26.2273 5.04545 27.5455 5.72727 28.3636 6.81818C28.9545 7.59091 29.2727 8.54545 29.2727 9.59091C29.2727 11 28.6364 12.2273 27.6818 13.0455C26.7273 12.8182 25.7727 12.6818 24.7727 12.6818C26.4545 12.6818 27.8636 11.2727 27.8636 9.54545C27.8636 7.81818 26.5 6.40909 24.7727 6.40909H24.7273C23.0455 6.40909 21.6364 7.81818 21.6364 9.54545C21.6364 11.2727 23 12.6818 24.7273 12.6818C27 12.6818 29.1818 13.3182 31.1364 14.5C31.5455 14.7727 31.9545 15.0455 32.3182 15.3182C33.0909 15.9545 33.8182 16.6818 34.4545 17.4545C34.0909 17.7273 33.7273 18.0455 33.3636 18.4091C32.5 17.2727 31.4091 16.2727 30.1364 15.5455C28.5 14.5909 26.6364 14.0909 24.7273 14.0909C23.6818 14.0909 22.6364 13.6818 21.8182 13C20.8182 12.1364 20.2273 10.8636 20.2273 9.54545C20.2273 8.5 20.5909 7.54545 21.1364 6.77273C19.6364 7.09091 18.1364 7.59091 16.7727 8.22727C16.3182 10.9091 17.2727 13.6818 19.3182 15.5C20.7727 16.8636 22.7273 17.6364 24.7273 17.6364C25.9091 17.6364 27.0455 17.9091 28.0909 18.4545C29.4545 19.1818 30.5455 20.3182 31.2727 21.6818C30.8636 22.7727 30.6364 23.9091 30.6818 25.0909C30.6818 21.7727 28.0455 19.0909 24.7727 19.0909H24.7273C21.5 19.1364 18.9091 21.8182 18.9091 25.0909C18.9091 26.2727 18.6818 27.4091 18.3182 28.5C17.6818 30.1818 16.5909 31.6818 15.1364 32.7727C13.3636 34.1364 11.1818 34.7727 9 34.6818C10.5455 37.3182 12.7273 39.5455 15.3636 41.1364C15.2727 38.9091 15.9091 36.7273 17.2273 34.9545C17.5909 35.2727 18 35.5455 18.4091 35.7727C17.3182 37.1818 16.7727 38.9091 16.7727 40.6818C16.7727 41.7273 16.9545 42.7727 17.3636 43.7727C18.5455 46.6818 21.3182 48.7273 24.5909 48.8182H25C27 48.8182 28.9545 48.5455 30.8636 48C38.9091 45.8182 45.2273 39.4091 47.3636 31.2727C48.7273 29.5909 49.5455 27.5455 49.5909 25.3636C49.4545 39.0455 38.5455 50.1364 25 50.2727H24.7273H24.4545C24.5909 50.3182 24.5 50.3182 24.5 50.3182ZM18.7273 48.0455C17.1818 46.7273 16.1364 44.9545 15.6364 43C15.6364 43 15.6364 43 15.6364 42.9545C11.4545 40.7273 8.22727 37.0909 6.45455 32.6818C5.5 30.2727 5 27.7273 5 25.1364C5 23.6818 5.68182 22.3636 6.77273 21.5455C7.54545 20.9545 8.45455 20.5909 9.5 20.5909C10.8636 20.5909 12.0909 21.2273 12.9091 22.1818C13.2273 20.9091 13.6818 19.7273 14.3636 18.6364C12.6364 17.2727 10.4091 16.7273 8.22727 17.0909C7.59091 17.1818 7.04545 17.3636 6.45455 17.5909C3.5 18.8182 1.54545 21.6818 1.45455 24.9091C1.45455 25 1.45455 25.0455 1.45455 25.1364V25.3636C1.45455 27.3636 1.72727 29.3636 2.27273 31.3182C4.45455 39.4545 10.7273 45.8636 18.7273 48.0455ZM8.22727 33.2273C10.4091 33.5909 12.6364 33 14.3636 31.6818C16.3636 30.1364 17.5455 27.7273 17.5455 25.1818C17.5455 23.9545 17.8182 22.8182 18.3636 21.7727C19.0455 20.4091 20.1818 19.2727 21.5 18.5455H21.4545C20.2273 18.0909 19.1364 17.3636 18.1818 16.4545C17.0455 17.3182 16.0909 18.4545 15.4091 19.6818C14.4545 21.3636 13.9545 23.2273 13.9545 25.1818C13.9545 26.3182 13.5455 27.3182 12.8636 28.1364C12 29.1364 10.7727 29.7273 9.45455 29.7273C8.40909 29.7273 7.5 29.3636 6.72727 28.7727C7.09091 30.3182 7.59091 31.8182 8.22727 33.2273ZM6.45455 25.3182C6.54545 26.9545 7.86364 28.3182 9.54545 28.3182C11.2727 28.3182 12.6364 26.9091 12.6364 25.2273C12.6364 25.1818 12.6364 25.1364 12.6364 25.1364C12.5909 23.4545 11.2273 22.1364 9.54545 22.1364C7.81818 22.1364 6.45455 23.5455 6.45455 25.2727C6.45455 25.2273 6.45455 25.2727 6.45455 25.3182Z" fill="#1F1F30"/>
</g>
<defs>
<clipPath id="clip0_1_2037">
<rect width="50" height="50.4545" fill="white"/>
</clipPath>
</defs>
</svg>

<svg xmlns="http://www.w3.org/2000/svg" width="62.745" height="64" fill="none" viewBox="0 0 50 51"><g clip-path="url(#a)"><path fill="#1F1F30" d="M32.818 42a7.978 7.978 0 0 0-2.545-7.273 7.951 7.951 0 0 0-5.41-2.136 7.21 7.21 0 0 1-3.363-.818c-1.364-.727-2.454-1.864-3.182-3.227.41-1.046.591-2.182.591-3.41 0 3.319 2.637 6 5.91 6h.136c3.227-.045 5.818-2.727 5.818-6 0-1.181.227-2.318.59-3.409a9.564 9.564 0 0 1 3.182-4.273c1.773-1.363 3.955-2 6.137-1.909a18.41 18.41 0 0 0-6.364-6.454v.454c0 2.091-.682 4.091-1.909 5.773a6.862 6.862 0 0 0-1.182-.818c1.091-1.41 1.637-3.136 1.637-4.91a8.12 8.12 0 0 0-.591-3.09c-1.182-2.91-3.955-4.955-7.228-5.045h-.454c-2 0-3.955.272-5.864.818C10.682 4.455 4.364 10.863 2.227 19 .864 20.682.045 22.727 0 24.91.136 11.226 11.046.135 24.59 0h.637c13.455.227 24.318 11.227 24.455 24.91v.545a9.424 9.424 0 0 1-2.227 5.909c-1.273 1.545-3.046 2.681-5 3.136-.728.182-1.5.273-2.228.273a9.5 9.5 0 0 1-5.681-1.91c-.591.819-1.319 1.5-2.091 2.137 1.318 1.773 2 4 1.863 6.227a18.41 18.41 0 0 0 6.364-6.454c.59-.046 1.182-.137 1.773-.273-1.864 3.636-4.819 6.59-8.41 8.5-2.818 1.5-6 2.273-9.181 2.273a4.456 4.456 0 0 1-3.546-1.773 4.707 4.707 0 0 1-.909-2.773c0-1.363.637-2.636 1.591-3.454.91.227 1.91.363 2.91.363-1.683 0-3.092 1.41-3.092 3.137s1.364 3.136 3.091 3.136h.046c1.681 0 3.09-1.409 3.09-3.136 0-1.728-1.363-3.137-3.09-3.137-2.273 0-4.455-.636-6.41-1.818-.409-.273-.818-.545-1.181-.818-.819-.636-1.5-1.364-2.137-2.136.364-.273.727-.591 1.091-.955.864 1.136 1.955 2.136 3.227 2.864 1.637.954 3.5 1.454 5.41 1.454a4.43 4.43 0 0 1 2.909 1.091 4.606 4.606 0 0 1 1.59 3.455c0 1-.318 1.954-.909 2.772 1.5-.318 2.955-.772 4.319-1.454L32.818 42Zm10.137-20.454c-.273-1.546-.773-3-1.455-4.41-2.182-.363-4.41.228-6.136 1.546a8.227 8.227 0 0 0-3.182 6.5 7.258 7.258 0 0 1-.818 3.409c-.682 1.363-1.819 2.5-3.137 3.227 1.227.455 2.319 1.182 3.273 2.091 1.136-.864 2.09-2 2.773-3.227a11.055 11.055 0 0 0 1.454-5.5c0-1.136.41-2.136 1.091-2.955.864-1 2.091-1.59 3.41-1.59 1 0 1.954.317 2.727.909Zm.318 3.5c-.046-1.637-1.41-2.955-3.091-3a3.094 3.094 0 0 0-3.091 3.09v.091c.045 1.682 1.409 3 3.09 3 1.728 0 3.092-1.409 3.092-3.09v-.091Zm-6.455 3.09c-.318 1.228-.773 2.455-1.454 3.546 1.727 1.363 3.954 1.909 6.136 1.545.59-.09 1.182-.272 1.773-.5 2.954-1.227 4.909-4.09 5-7.318V25c0-2-.273-4-.819-5.954C45.319 10.955 39 4.546 31 2.317c1.545 1.318 2.59 3.091 3.09 5.046v.045c4.183 2.227 7.41 5.864 9.183 10.273.954 2.318 1.454 4.864 1.454 7.545a4.478 4.478 0 0 1-1.772 3.591c-.773.591-1.728.955-2.728.955a4.712 4.712 0 0 1-3.409-1.637ZM24.5 50.318C11.046 50.091.182 39.045.045 25.41v-.545a9.425 9.425 0 0 1 2.228-5.91c1.272-1.545 3.045-2.636 5-3.136a9.334 9.334 0 0 1 2.227-.272 9.5 9.5 0 0 1 5.682 1.909c.59-.819 1.318-1.5 2.09-2.137a9.83 9.83 0 0 1-1.908-6.227A18.41 18.41 0 0 0 9 15.546c-.59.045-1.182.136-1.773.272 1.864-3.636 4.819-6.59 8.41-8.5 2.817-1.5 6-2.273 9.181-2.273 1.41 0 2.727.682 3.546 1.773.59.773.909 1.727.909 2.773 0 1.409-.637 2.636-1.591 3.455a12.436 12.436 0 0 0-2.91-.364c1.683 0 3.092-1.41 3.092-3.137S26.5 6.41 24.773 6.41h-.046c-1.681 0-3.09 1.41-3.09 3.136 0 1.728 1.363 3.137 3.09 3.137 2.273 0 4.455.636 6.41 1.818.409.273.817.546 1.181.818.773.636 1.5 1.364 2.137 2.136-.364.273-.728.591-1.091.955-.864-1.136-1.955-2.136-3.228-2.863a10.721 10.721 0 0 0-5.409-1.455c-1.045 0-2.09-.41-2.909-1.091a4.595 4.595 0 0 1-1.59-3.455c0-1.045.363-2 .908-2.772-1.5.318-3 .818-4.363 1.454a7.978 7.978 0 0 0 2.545 7.273 7.952 7.952 0 0 0 5.41 2.136 7.21 7.21 0 0 1 3.363.819c1.363.727 2.454 1.863 3.182 3.227-.41 1.09-.637 2.227-.591 3.409 0-3.318-2.636-6-5.91-6h-.045c-3.227.045-5.818 2.727-5.818 6 0 1.182-.227 2.318-.59 3.409a9.564 9.564 0 0 1-3.183 4.273c-1.772 1.363-3.954 2-6.136 1.909a18.41 18.41 0 0 0 6.364 6.454c-.091-2.227.545-4.409 1.863-6.181.364.318.773.59 1.182.818-1.09 1.409-1.636 3.136-1.636 4.909 0 1.045.181 2.09.59 3.09 1.183 2.91 3.955 4.955 7.228 5.046H25c2 0 3.954-.273 5.864-.818 8.045-2.182 14.363-8.59 16.5-16.727 1.363-1.682 2.181-3.727 2.227-5.91C49.455 39.046 38.545 50.137 25 50.274h-.546c.137.045.046.045.046.045Zm-5.773-2.273c-1.545-1.318-2.59-3.09-3.09-5.045v-.045c-4.183-2.228-7.41-5.864-9.182-10.273A20.438 20.438 0 0 1 5 25.136c0-1.454.682-2.772 1.773-3.59.772-.591 1.682-.955 2.727-.955 1.364 0 2.59.636 3.41 1.59.317-1.272.772-2.454 1.454-3.545-1.728-1.363-3.955-1.909-6.137-1.545-.636.09-1.182.273-1.772.5-2.955 1.227-4.91 4.09-5 7.318v.455c0 2 .272 4 .818 5.954 2.182 8.137 8.454 14.546 16.454 16.727Zm-10.5-14.818c2.182.364 4.41-.227 6.137-1.545a8.227 8.227 0 0 0 3.181-6.5 7.26 7.26 0 0 1 .819-3.41c.681-1.363 1.818-2.5 3.136-3.226h-.046c-1.227-.455-2.318-1.182-3.272-2.091-1.136.863-2.091 2-2.773 3.227a11.055 11.055 0 0 0-1.455 5.5c0 1.136-.409 2.136-1.09 2.954-.864 1-2.091 1.591-3.41 1.591-1.045 0-1.954-.363-2.727-.954a24.442 24.442 0 0 0 1.5 4.454Zm-1.772-7.909c.09 1.636 1.409 3 3.09 3 1.728 0 3.091-1.409 3.091-3.09v-.092a3.076 3.076 0 0 0-3.09-3c-1.728 0-3.091 1.41-3.091 3.137v.045Z"/></g><defs><clipPath id="a"><path fill="#fff" d="M0 0h50v50.455H0z"/></clipPath></defs></svg>
